/* XPM */
static char * hide_active_xpm[] = {
"26 26 3 1",
" 	c None",
".	c #f8f6f7",
"+	c #333333 s active_text_color",
"..........................",
"..........................",
"..........................",
"..........................",
"..........................",
"..........................",
"..........................",
"..........................",
"..........................",
"..........................",
"..........................",
"..........................",
".........++++++++.........",
".........++++++++.........",
"..........................",
"..........................",
"..........................",
"..........................",
"..........................",
"..........................",
"..........................",
"..........................",
"..........................",
"..........................",
"..........................",
".........................."};
