/* XPM */
static char * top_right_active_xpm[] = {
"11 36 2 1",
"       c None",
".      c #FFBFE0 s active_color_2",
"...        ",
".....      ",
".......    ",
"........   ",
".........  ",
".........  ",
".......... ",
".......... ",
"...........",
"...........",
"...........",
"...........",
"...........",
"...........",
"...........",
"...........",
"...........",
"...........",
"...........",
"...........",
"...........",
"...........",
"...........",
"...........",
"...........",
"...........",
"...........",
"...........",
"...........",
"...........",
"...........",
"...........",
"...........",
"...........",
"...........",
"..........."};
