/* XPM */
static char * top_left_inactive_xpm[] = {
"11 36 2 1",
"       c None",
".      c #FFBFE0 s inactive_color_2",
"        ...",
"      .....",
"    .......",
"   ........",
"  .........",
"  .........",
" ..........",
" ..........",
"...........",
"...........",
"...........",
"...........",
"...........",
"...........",
"...........",
"...........",
"...........",
"...........",
"...........",
"...........",
"...........",
"...........",
"...........",
"...........",
"...........",
"...........",
"...........",
"...........",
"...........",
"...........",
"...........",
"...........",
"...........",
"...........",
"...........",
"..........."};
