/* XPM */
static char * bottom_right_inactive_xpm[] = {
"24 24 2 1",
" 	c None",
".	c #FFBFE0 s inactive_color_2",
"                       .",
"                       .",
"                       .",
"                       .",
"                       .",
"                       .",
"                       .",
"                       .",
"                       .",
"                       .",
"                       .",
"                       .",
"                       .",
"                       .",
"                       .",
"                       .",
"                       .",
"                       .",
"                       .",
"                       .",
"                       .",
"                       .",
"                       .",
"........................"};
